!!!!SEGMENT: Wil3006-Mon_mary_ma_diffamee.krn
!!!id: Wil3006
!!!AGN: Chanson
!!!SCT: Thomas (1986)
!!!voices: 4
!!!COM: Adrian Willaert
!!!OTL: Mon mary m'a diffamee
**kern	**kern	**kern	**kern
*part4	*part3	*part2	*part1
*staff4	*staff3	*staff2	*staff1
*I"Bassus	*I"Tenor	*I"Altus	*I"Superius
*I'B	*I'T	*I'A	*I'S
*clefF4	*clefGv2	*clefGv2	*clefG2
*k[]	*k[b-]	*k[]	*k[b-]
*C:	*F:	*C:	*F:
*M2/1	*M2/1	*M2/1	*M2/1
*met(C|)	*met(C|)	*met(C|)	*met(C|)
=1	=1	=1	=1
!LO:TX:a:t=Canon&colon; bassus/tenor at the fourth	!	!LO:TX:a:t=Canon&colon; altus/superius at the fourth	!
1r	0r	2.d	0r
.	.	4d	.
2.G	.	2d	.
.	.	2d	.
4G	.	.	.
=2	=2	=2	=2
2G	0r	1e	0r
2G	.	.	.
1A	.	1f	.
=3	=3	=3	=3
1B	0r	2.g	1r
.	.	4f	.
[1c	.	4e	2.g
.	.	4d	.
.	.	[2e	.
.	.	.	4g
=4	=4	=4	=4
2c]	2.c	4e]	2g
.	.	4d	.
2B	.	1g	2g
.	4c	.	.
1A	2c	.	1a
.	2c	2f#i	.
=5	=5	=5	=5
1G	1d	0g	1b-y
1r	1e	.	2.cc
.	.	.	4b-y
=6	=6	=6	=6
0r	1.f	0r	4a
.	.	.	4g
.	.	.	2.a
.	.	.	4g
.	2e	.	[2cc
=7	=7	=7	=7
1r	1d	2r	2cc]
.	.	2d	2bni
2.A	1c	2e	[1cc
.	.	2f	.
4A	.	.	.
=8	=8	=8	=8
2A	0r	2e	1cc]
2A	.	2.f	.
2.G	.	.	1r
.	.	4e	.
.	.	[2e	.
8FL	.	.	.
8EJ	.	.	.
=9	=9	=9	=9
2F	0r	2e]	1r
2F	.	2d	.
1E	.	1e	2r
.	.	.	2g
=10	=10	=10	=10
0r	2.d	2r	2a
.	.	2f	2b-y
.	4d	.	.
.	2d	2f	2a
.	2d	4e	[2b-y
.	.	4d	.
=11	=11	=11	=11
0r	2.c	2e	4b-]
.	.	.	4a
.	.	2e	1a
.	8B-yL	.	.
.	8AJ	.	.
.	2B-y	2.d	.
.	2B-y	.	2g
.	.	4e	.
=12	=12	=12	=12
1r	1A	2f	1a
.	.	1e	.
2.G	1r	.	2r
.	.	4d	2b-y
4G	.	4c	.
=13	=13	=13	=13
2G	0r	2d	2b-y
2G	.	2.e	4a
.	.	.	4g
2.F	.	.	2a
.	.	4d	.
.	.	[2d	2a
8EL	.	.	.
8DJ	.	.	.
=14	=14	=14	=14
2E	0r	2d]	2.g
2E	.	2c#i	.
.	.	.	4a
2D	.	2.d	2b-y
[2F	.	.	[2a
.	.	8cLny	.
.	.	8BJ	.
=15	=15	=15	=15
2F]	2.c	4A	2a]
.	.	4B	.
4E	.	4c	4g
4D	4c	4d	4f
2C	2c	2e	2g
2F	2c	2f	[2a
=16	=16	=16	=16
2.G	2.B-y	0d	4a]
.	.	.	4g
.	.	.	1g
8FL	8AL	.	.
8EJ	8GJ	.	.
1D	2A	.	.
.	2A	.	2f#i
=17	=17	=17	=17
0G	0G	0d	0g
=18	=18	=18	=18
1r	0r	2.d	0r
.	.	4d	.
2.G	.	2d	.
.	.	2d	.
4G	.	.	.
=19	=19	=19	=19
2G	0r	1e	0r
2G	.	.	.
1A	.	1f	.
=20	=20	=20	=20
1B	0r	2.g	1r
.	.	4f	.
[1c	.	4e	2.g
.	.	4d	.
.	.	[2e	.
.	.	.	4g
=21	=21	=21	=21
2c]	2.c	4e]	2g
.	.	4d	.
2B	.	1g	2g
.	4c	.	.
1A	2c	.	1a
.	2c	2f#i	.
=22	=22	=22	=22
1G	1d	0g	1b-y
1r	1e	.	2.cc
.	.	.	4b-y
=23	=23	=23	=23
0r	1.f	0r	4a
.	.	.	4g
.	.	.	2.a
.	.	.	4g
.	2e	.	[2cc
=24	=24	=24	=24
1r	1d	2r	2cc]
.	.	2d	2bni
2.A	1c	2e	[1cc
.	.	2f	.
4A	.	.	.
=25	=25	=25	=25
2A	0r	2e	1cc]
2A	.	2.f	.
2.G	.	.	1r
.	.	4e	.
.	.	[2e	.
8FL	.	.	.
8EJ	.	.	.
=26	=26	=26	=26
2F	0r	2e]	1r
2F	.	2d	.
1E	.	1e	2r
.	.	.	2g
=27	=27	=27	=27
0r	2.d	2r	2a
.	.	2f	2b-y
.	4d	.	.
.	2d	2f	2a
.	2d	4e	[2b-y
.	.	4d	.
=28	=28	=28	=28
0r	2.c	2e	4b-]
.	.	.	4a
.	.	2e	1a
.	8B-yL	.	.
.	8AJ	.	.
.	2B-y	2.d	.
.	2B-y	.	2g
.	.	4e	.
=29	=29	=29	=29
1r	1A	2f	1a
.	.	1e	.
2.G	1r	.	2r
.	.	4d	2b-y
4G	.	4c	.
=30	=30	=30	=30
2G	0r	2d	2b-y
2G	.	2.e	4a
.	.	.	4g
2.F	.	.	2a
.	.	4d	.
.	.	[2d	2a
8EL	.	.	.
8DJ	.	.	.
=31	=31	=31	=31
2E	0r	2d]	2.g
2E	.	2c#i	.
.	.	.	4a
2D	.	2.d	2b-y
[2F	.	.	[2a
.	.	8cLny	.
.	.	8BJ	.
=32	=32	=32	=32
2F]	2.c	4A	2a]
.	.	4B	.
4E	.	4c	4g
4D	4c	4d	4f
2C	2c	2e	2g
2F	2c	2f	[2a
=33	=33	=33	=33
2.G	2.B-y	0d	4a]
.	.	.	4g
.	.	.	1g
8FL	8AL	.	.
8EJ	8GJ	.	.
1D	2A	.	.
.	2A	.	2f#i
=34	=34	=34	=34
0G	0G	0d	0g
=35	=35	=35	=35
0r	0r	1.g	0r
.	.	2f	.
=36	=36	=36	=36
2.G	0r	2e	0r
.	.	4d	.
4A	.	4c	.
2B	.	2d	.
2c	.	[2e	.
=37	=37	=37	=37
1G	0r	4e]	1r
.	.	4d	.
.	.	1g	.
1A	.	.	[1cc
.	.	2f#i	.
=38	=38	=38	=38
2.G	1r	2.g	2cc]
.	.	.	2b-y
4G	.	4f	.
2A	2.c	4e	2a
.	.	4d	.
[2c	.	[2e	4g
.	4d	.	4f
=39	=39	=39	=39
4c]	2e	2e]	2g
4B	.	.	.
4A	2f	2.c	2.a
4G	.	.	.
2A	1c	.	.
.	.	4d	4g
2A	.	4e	[2cc
.	.	4f	.
=40	=40	=40	=40
1G	1d	2g	2cc]
.	.	2g	2bni
1r	2.c	1e	2.cc
.	4c	.	4b-y
=41	=41	=41	=41
0r	2d	0r	4a
.	.	.	4g
.	2.f	.	1a
.	4e	.	.
.	4d	.	[2f
.	4c	.	.
=42	=42	=42	=42
0r	2d	2a	4f]
.	.	.	4g
.	2d	2a	4a
.	.	.	4b-y
.	1c	2a	2cc
.	.	2g	2cc
=43	=43	=43	=43
2.d	0r	2.f	1a
4d	.	4g	.
2d	.	2a	1r
2d	.	[2b-i	.
=44	=44	=44	=44
1c	0r	4b-]	1r
.	.	4a	.
.	.	1a	.
1B	.	.	2dd
.	.	2g	2dd
=45	=45	=45	=45
1A	1r	1a	2dd
.	.	.	2cc
2.G	2.g	1r	2.b-y
4G	4g	.	4cc
=46	=46	=46	=46
2G	2g	0r	2dd
2E	2g	.	2.ee-i
2.F	1f	.	.
.	.	.	4dd
.	.	.	2dd
4G	.	.	.
=47	=47	=47	=47
2A	1e	2r	2dd
2A	.	2e	2cc#i
1D	1d	2f	1dd
.	.	2d	.
=48	=48	=48	=48
2r	2.c	2.e	0r
2A	.	.	.
.	4c	4d	.
2A	2c	2e	.
2A	2A	2f	.
=49	=49	=49	=49
1.G	2.B-y	2g	1r
.	.	2.e	.
.	4c	.	.
.	2d	.	2r
.	.	4d	.
2F	2d	[2d	2a
=50	=50	=50	=50
1E	1G	4d]	2b-y
.	.	4c#i	.
.	.	4c#i	2g
.	.	4B	.
[1D	2r	2.d	2.a
.	2d	.	.
.	.	4e	4g
=51	=51	=51	=51
1D]	2d	1f	2a
.	2d	.	2b-y
1r	[1c	1e	2cc
.	.	.	[2a
=52	=52	=52	=52
0r	2c]	0r	4a]
.	.	.	4g
.	2B-y	.	2.g
.	1A	.	.
.	.	.	4f#i
.	.	.	4f#i
.	.	.	4e
=53	=53	=53	=53
0r	0G	2r	2.g
.	.	2g	.
.	.	.	4a
.	.	2g	1b-y
.	.	2g	.
=54	=54	=54	=54
2d	0r	2.f	1a
2d	.	.	.
.	.	8eL	.
.	.	8dJ	.
2d	.	2f	1r
2c	.	2e	.
=55	=55	=55	=55
2B	0r	4d	1r
.	.	4e	.
4A	.	4f	.
4B	.	4g	.
4c	.	4a	2r
4B	.	4g	.
4A	.	[2g	2cc
4G	.	.	.
=56	=56	=56	=56
1A	1r	2g]	2cc
.	.	2f#i	2cc
[1G	2g	2g	2.b-y
.	2g	[2d	.
.	.	.	8aL
.	.	.	8gJ
=57	=57	=57	=57
2G]	2g	4d]	2b-y
.	.	4e	.
2D	2f	2f	2a
2E	2e	1g	4g
.	.	.	4a
2G	4d	.	4b-y
.	4e	.	4cc
=58	=58	=58	=58
2F	4f	2a	4dd
.	4e	.	4cc
2A	4d	2f	1cc
.	4c	.	.
1G	1d	[1gl	.
.	.	.	2bni
=59	=59	=59	=59
00Cl	00cl	00g]	00ccl
==	==	==	==
*-	*-	*-	*-
!!!system-decoration: [*]
!!!RDF**kern: i = editorial accidental
!!!RDF**kern: l = terminal long
!!!ENC: Benjamin Ory
!!!END: 2020/12/18
!!!EED: Benjamin Ory
!!!EEV: 2021/04/30
!!!YEC: Copyright 2021 Benjamin Ory, All Rights Reserved
!!!ONB: Translated from MusicXML on 2021/04/30
